svgs/regular/kit-medical.svg

<svg xmlns="http://www.w3.org/2000/svg" viewBox="0 0 576 512"><!--! Font Awesome Pro 6.6.0 by @fontawesome - https://fontawesome.com License - https://fontawesome.com/license (Commercial License) Copyright 2024 Fonticons, Inc. --><path d="M144 432l288 0 0-352L144 80l0 352zm-48 0L96 80 64 80c-8.8 0-16 7.2-16 16l0 320c0 8.8 7.2 16 16 16l32 0zM64 32l32 0 24 0 24 0 288 0 24 0 24 0 32 0c35.3 0 64 28.7 64 64l0 320c0 35.3-28.7 64-64 64l-32 0-24 0-24 0-288 0-24 0-24 0-32 0c-35.3 0-64-28.7-64-64L0 96C0 60.7 28.7 32 64 32zM480 432l32 0c8.8 0 16-7.2 16-16l0-320c0-8.8-7.2-16-16-16l-32 0 0 352zM256 176c0-8.8 7.2-16 16-16l32 0c8.8 0 16 7.2 16 16l0 48 48 0c8.8 0 16 7.2 16 16l0 32c0 8.8-7.2 16-16 16l-48 0 0 48c0 8.8-7.2 16-16 16l-32 0c-8.8 0-16-7.2-16-16l0-48-48 0c-8.8 0-16-7.2-16-16l0-32c0-8.8 7.2-16 16-16l48 0 0-48z"/></svg>

<svg xmlns="http://www.w3.org/2000/svg" viewBox="0 0 576 512"><!--! Font Awesome Pro 6.4.0 by @fontawesome - https://fontawesome.com License - https://fontawesome.com/license (Commercial License) Copyright 2023 Fonticons, Inc. --><path d="M144 432H432V80H144V432zm-48 0V80H64c-8.8 0-16 7.2-16 16V416c0 8.8 7.2 16 16 16H96zM64 32H96h24 24H432h24 24 32c35.3 0 64 28.7 64 64V416c0 35.3-28.7 64-64 64H480 456 432 144 120 96 64c-35.3 0-64-28.7-64-64V96C0 60.7 28.7 32 64 32zM480 432h32c8.8 0 16-7.2 16-16V96c0-8.8-7.2-16-16-16H480V432zM256 176c0-8.8 7.2-16 16-16h32c8.8 0 16 7.2 16 16v48h48c8.8 0 16 7.2 16 16v32c0 8.8-7.2 16-16 16H320v48c0 8.8-7.2 16-16 16H272c-8.8 0-16-7.2-16-16V288H208c-8.8 0-16-7.2-16-16V240c0-8.8 7.2-16 16-16h48V176z"/></svg>
